src/assets/icons/cars/sedan_car.svg

<svg width="48" height="48" viewBox="0 0 48 48" fill="none" xmlns="http://www.w3.org/2000/svg">
<g id="Icons / Vertical Cars / Car bodytype sedan">
<path id="Fill 1" fill-rule="evenodd" clip-rule="evenodd" d="M20.8311 17H29.0251C29.3421 17 29.6371 17.141 29.8361 17.387L33.0111 21.307L33.2081 21.492C33.4311 21.651 33.6751 21.775 33.9311 21.859L37.4921 23.047C37.7961 23.148 38.0001 23.431 38.0001 23.751V27.602C38.0001 27.821 37.8211 28 37.6021 28H36.0831C35.5621 27.108 34.6051 26.5 33.5001 26.5C32.3941 26.5 31.4381 27.108 30.9171 28H18.0831C17.5621 27.108 16.6051 26.5 15.5001 26.5C14.3941 26.5 13.4381 27.108 12.9171 28H10.7431C10.3331 28 10.0001 27.667 10.0001 27.257V23.751C10.0001 23.429 10.2041 23.144 10.4221 23.067L14.9501 21.99C14.9681 21.991 14.9821 22 15.0001 22H20.0001C20.5521 22 21.0001 21.552 21.0001 21C21.0001 20.448 20.5521 20 20.0001 20H17.3541C18.0221 19.35 18.9101 18.479 20.1131 17.293C20.3051 17.104 20.5601 17 20.8311 17ZM33.5001 30.5C32.9491 30.5 32.5001 30.051 32.5001 29.5C32.5001 28.949 32.9491 28.5 33.5001 28.5C34.0511 28.5 34.5001 28.949 34.5001 29.5C34.5001 30.051 34.0511 30.5 33.5001 30.5ZM15.5001 30.5C14.9491 30.5 14.5001 30.051 14.5001 29.5C14.5001 28.949 14.9491 28.5 15.5001 28.5C16.0511 28.5 16.5001 28.949 16.5001 29.5C16.5001 30.051 16.0511 30.5 15.5001 30.5ZM14.3811 20.074L9.87512 21.146C8.75412 21.52 8.00012 22.567 8.00012 23.751V27.257C8.00012 28.77 9.23012 30 10.7431 30H12.5501C12.7901 31.416 14.0171 32.5 15.5001 32.5C16.9831 32.5 18.2101 31.416 18.4491 30H30.5501C30.7901 31.416 32.0171 32.5 33.5001 32.5C34.9831 32.5 36.2101 31.416 36.4491 30H37.6021C38.9241 30 40.0001 28.924 40.0001 27.602V23.751C40.0001 22.569 39.2461 21.523 38.1241 21.149L34.5601 19.961C34.5261 19.95 34.4931 19.936 34.4611 19.919L31.3911 16.128C30.8101 15.411 29.9481 15 29.0251 15H20.8311C20.0311 15 19.2771 15.309 18.7091 15.869C16.0961 18.443 14.7961 19.696 14.3811 20.074Z" fill="#253238"/>
</g>
</svg>

<svg width="48" height="48" viewBox="0 0 48 48" fill="none" xmlns="http://www.w3.org/2000/svg"><path fill-rule="evenodd" clip-rule="evenodd" d="M20.831 17h8.194c.317 0 .612.141.811.387l3.175 3.92.197.185c.223.159.467.283.723.367l3.561 1.188a.74.74 0 01.508.704v3.851a.399.399 0 01-.398.398h-1.519a2.993 2.993 0 00-2.583-1.5 2.991 2.991 0 00-2.583 1.5H18.083a2.993 2.993 0 00-2.583-1.5 2.991 2.991 0 00-2.583 1.5h-2.174a.743.743 0 01-.743-.743v-3.506c0-.322.204-.607.422-.684l4.528-1.077c.018.001.032.01.05.01h5a1 1 0 000-2h-2.646c.668-.65 1.556-1.521 2.76-2.707.191-.189.446-.293.717-.293zm12.67 13.5c-.552 0-1-.449-1-1 0-.551.448-1 1-1 .55 0 1 .449 1 1 0 .551-.45 1-1 1zm-18 0c-.552 0-1-.449-1-1 0-.551.448-1 1-1 .55 0 1 .449 1 1 0 .551-.45 1-1 1zm-1.12-10.426l-4.506 1.072A2.742 2.742 0 008 23.751v3.506A2.745 2.745 0 0010.743 30h1.807a2.999 2.999 0 002.95 2.5 2.997 2.997 0 002.95-2.5h12.1a2.999 2.999 0 002.95 2.5 2.997 2.997 0 002.95-2.5h1.152A2.401 2.401 0 0040 27.602v-3.851a2.74 2.74 0 00-1.876-2.602l-3.564-1.188a.613.613 0 01-.099-.042l-3.07-3.791A3.032 3.032 0 0029.025 15h-8.194c-.8 0-1.554.309-2.122.869-2.613 2.574-3.913 3.827-4.328 4.205z" fill="#253238"/></svg>
